src/resources/icons-ec/src/all/package.svg

<?xml version="1.0" encoding="UTF-8" ?>
<svg xmlns="http://www.w3.org/2000/svg" viewBox="0 0 48 48"><defs><style
    >.cls-1{fill:none;}.cls-2{fill-rule:evenodd;}</style></defs><g
    id="transparant_bg"
  ><rect class="cls-1" width="48" height="48" /></g><g id="Layer_1"><path
      class="cls-2"
      d="M4,20H44v26H4V20Zm12,10h16v-6H16v6Zm30-12v-6l-6-10H8L2,12v6H46Z"
    /></g></svg>

<?xml version="1.0" encoding="UTF-8"?>
<svg width="48px" height="48px" viewBox="0 0 48 48" version="1.1" xmlns="http://www.w3.org/2000/svg" xmlns:xlink="http://www.w3.org/1999/xlink">
    <title>EC/Icons/General/2XL_48x48px/Icon-Package</title>
    <defs>
        <path d="M4,20 L44,20 L44,46 L4,46 L4,20 Z M16,30 L32,30 L32,24 L16,24 L16,30 Z M46,18 L46,12 L40,2 L8,2 L2,12 L2,18 L46,18 Z" id="path-1"></path>
    </defs>
    <g id="EC/Icons/General/2XL_48x48px/Icon-Package" stroke="none" stroke-width="1">
        <mask id="mask-2">
            <use xlink:href="#path-1"></use>
        </mask>
        <use id="Package" xlink:href="#path-1"></use>
    </g>
</svg>
